assets/svgs/misc-grey/MiscGrey104.svg

<svg width="47" height="26" viewBox="0 0 47 26" fill="none" xmlns="http://www.w3.org/2000/svg">
<path fill-rule="evenodd" clip-rule="evenodd" d="M43.782 19.8L33.782 13.91V11.19L43.782 6.18998V19.8ZM30.782 19.6C30.782 20.98 29.661 22.1 28.282 22.1H5.78198C4.40398 22.1 3.28198 20.98 3.28198 19.6V6.09998C3.28198 4.71998 4.40398 3.59998 5.78198 3.59998H28.282C29.661 3.59998 30.782 4.71998 30.782 6.09998V19.6ZM46.071 2.48998C45.629 2.20998 45.077 2.18998 44.611 2.41998L33.782 7.83998V6.09998C33.782 3.06998 31.315 0.599976 28.282 0.599976H5.78198C2.74998 0.599976 0.281982 3.06998 0.281982 6.09998V19.6C0.281982 22.63 2.74998 25.1 5.78198 25.1H28.282C31.315 25.1 33.782 22.63 33.782 19.6V17.39L44.52 23.72C44.755 23.86 45.019 23.93 45.282 23.93C45.539 23.93 45.795 23.87 46.026 23.73C46.494 23.47 46.782 22.97 46.782 22.43V3.75998C46.782 3.23998 46.513 2.75998 46.071 2.48998Z" fill="#1A1919"/>
</svg>

<svg xmlns="http://www.w3.org/2000/svg" fill="none" viewBox="0 0 47 26"><path fill="#1A1919" fill-rule="evenodd" d="M43.782 19.8l-10-5.89v-2.72l10-5V19.8zm-13-.2c0 1.38-1.121 2.5-2.5 2.5h-22.5c-1.378 0-2.5-1.12-2.5-2.5V6.1c0-1.38 1.122-2.5 2.5-2.5h22.5c1.379 0 2.5 1.12 2.5 2.5v13.5zM46.071 2.49a1.49 1.49 0 00-1.46-.07L33.782 7.84V6.1c0-3.03-2.467-5.5-5.5-5.5h-22.5C2.75.6.282 3.07.282 6.1v13.5c0 3.03 2.468 5.5 5.5 5.5h22.5c3.033 0 5.5-2.47 5.5-5.5v-2.21l10.738 6.33a1.489 1.489 0 001.506.01c.468-.26.756-.76.756-1.3V3.76c0-.52-.269-1-.711-1.27z" clip-rule="evenodd"/></svg>
